public/assets/img/logo.svg

<svg xmlns="http://www.w3.org/2000/svg" xmlns:xlink="http://www.w3.org/1999/xlink" enable-background="new 0 0 211 44" viewBox="0 0 211 44" class="radiojavanlogo">
    <g id="Symbols" stroke="none" stroke-width="1" fill="none" fill-rule="evenodd">
        <g id="logo/RadioJavanLogo" fill="#ffffff">
            <path d="M58,10 L66.7922196,10 C70.6923777,10 73.0740191,12.0863127 73.0740191,16.1856795 C73.0740191,19.377886 71.8184257,21.5304433 69.1393666,22.0993668 L69.1393666,22.1656113 C72.3787668,22.6051632 72.8747185,24.4194837 72.9398745,29.4953726 C72.9743688,32.0150024 73.1062138,33.3266439 74,33.7973697 L74,34 L68.8419489,34 C68.3789585,33.3266439 68.2793082,32.4194837 68.246347,31.4772528 L68.1160351,26.8720896 C68.047813,24.9915246 67.2222488,23.8505602 65.3043645,23.8505602 L62.75945,23.8505602 L62.75945,34 L58,34 L58,10 L58,10 Z M63,20 L63.0006902,20 L63.0006902,13 L65.024434,13 C66.9584484,13 68,14.1191173 68,16.3628687 C68,18.9801846 66.8411099,20 64.7863059,20 L63,20 Z M80.4385814,13 L85.5606559,13 L91,34 L86.6848277,34 L85.7337814,29.5588465 L80.2662186,29.5588465 L79.3166977,34 L75,34 L80.4385814,13 Z M81,26 L82.969324,17 L83.0276463,17 L85,26 L81,26 Z M93.00073,13 L99.5010951,13 C105.010052,13 106,17.0305471 106,23.2045876 C106,30.6460174 104.515078,34 99.252148,34 L93,34 L93,13 L93.00073,13 Z M97.00072,30 L97,30 L97,16 L98.656106,16 C101.645017,16 102,18.3138725 102,22.8307644 C102,28.2403927 101.457085,30 98.7381912,30 L97.00072,30 Z M110,34 L110,13 L114,13 L114,34 L110,34 Z M125,13 C131.224258,13 132,17.3616885 132,23.5 C132,29.6413113 131.224258,34 125,34 C118.777269,34 118,29.6413113 118,23.5 C118,17.3616885 118.777269,13 125,13 Z M124.998394,31 C122.423293,31 122,28.9313966 122,23.4981249 C122,18.0926046 122.423293,16 124.998394,16 C127.573494,16 128,18.0926046 128,23.4981249 C128,28.9313966 127.573494,31 124.998394,31 Z M147,10 L147,26.9466174 C147,31.9566824 144.781853,34 140.082932,34 C135.192264,34 134,30.8031596 134,27.1109696 L134,26.0912218 L138.249024,26.0912218 L138.249024,26.8166645 C138.249024,29.321697 138.636249,30.5057969 140.306761,30.5057969 C141.980257,30.5057969 142.367482,29.321697 142.367482,26.8166645 L142.367482,10 L147,10 Z M154.4391,13 L159.561663,13 L165,34 L160.684416,34 L159.734805,29.5588465 L154.265195,29.5588465 L153.315584,34 L149,34 L154.4391,13 Z M155,26 L156.970861,17 L157.029139,17 L159,26 L155,26 Z M169.503797,13 L172.454668,28.5276695 L172.543008,28.5276695 L175.641112,13 L180,13 L175.204061,34 L169.795939,34 L165,13 L169.503797,13 Z M185.441113,13 L190.5627,13 L196,34 L191.682189,34 L190.732758,29.5588465 L185.267242,29.5588465 L184.314761,34 L180,34 L185.441113,13 Z M186,26 L187.970861,17 L188.029139,17 L190,26 L186,26 Z M202.552108,13 L207.324444,27.3803585 L207.380409,27.3803585 L207.380409,13 L211,13 L211,34 L206.501677,34 L201.673376,19.294622 L201.620318,19.294622 L201.620318,34 L198,34 L198,13 L202.552108,13 Z M44.9115242,11.2368339 C48.6536383,13.1909398 51.1977532,17.892826 50.9879218,23.2216786 C50.7795425,28.4896467 47.9406472,32.8211515 44.1244749,34.3606622 C46.8617218,32.0245779 48.7574649,27.9083436 48.9447884,23.1223787 C49.1357423,18.2639321 47.5166281,13.8816901 44.9115242,11.2368339 Z M2.04565727,22.8476732 C2.10156391,27.7126431 3.94285252,31.9586196 6.68009939,34.3918293 C2.84432347,32.7370727 0.0656911677,28.2453834 0.00107181182,22.9107322 C-0.0606433034,17.6369657 2.54881698,13.0887406 6.27568387,11.2498806 C3.67057995,13.8005107 1.98612034,18.0566345 2.04565727,22.8476732 Z M42.4008081,25.7404168 C42.4008081,14.2571452 34.9013325,4.94977349 25.653504,4.94977349 C16.4049494,4.94977349 8.90910414,14.2571452 8.9098302,25.7404168 C8.9098302,28.7600033 9.43331959,31.6266535 10.3663069,34.2156989 C8.82488116,30.9518491 7.93473138,27.1559839 7.93473138,23.0991846 C7.93473138,10.9498064 15.8676649,1.10027181 25.653504,1.10027181 C35.4400691,1.10027181 43.3737287,10.9498064 43.3737287,23.0991846 C43.3737287,27.1559839 42.4864832,30.9540236 40.9421532,34.2156989 C41.8780447,31.6266535 42.4008081,28.7600033 42.4008081,25.7404168 Z M5.94532649,21.9996376 C5.94532649,34.0547896 13.8201752,43.8289433 23.5290519,43.8289433 C23.856505,43.8289433 24.1839582,43.8158965 24.5092331,43.794152 C23.7258142,43.9260687 22.9235177,44 22.1110564,44 C12.3244912,44 4.39228377,34.1504654 4.39228377,21.9996376 C4.39228377,9.84953463 12.3244912,0 22.1117824,0 C22.9242438,0 23.7258142,0.0746561239 24.5099592,0.208022403 C24.1839582,0.185553085 23.8572311,0.171781567 23.529778,0.171781567 C13.8201752,0.171781567 5.94532649,9.94303599 5.94532649,21.9996376 Z M45.2803627,21.9996376 C45.2803627,9.94303599 37.4098704,0.171781567 27.6988155,0.171781567 C27.3699102,0.171781567 27.0424571,0.185553085 26.7186343,0.208022403 C27.5035053,0.0746561239 28.3028976,0 29.1182632,0 C38.9041022,0 46.8355836,9.84953463 46.8355836,21.9996376 C46.8355836,34.1504654 38.9041022,44 29.1182632,44 C28.3028976,44 27.5035053,43.9260687 26.7179082,43.794152 C27.041731,43.8158965 27.3691842,43.8289433 27.6980894,43.8289433 C37.4098704,43.8289433 45.2803627,34.0547896 45.2803627,21.9996376 Z M25.5707331,34.4273454 C29.8653791,34.4273454 33.5356133,32.7138786 35.0247627,30.2922659 C33.9443852,33.214727 30.1216783,35.3768553 25.5707331,35.3768553 C21.0154316,35.3768553 17.1927247,33.2140021 16.1152514,30.2922659 C17.6029487,32.7138786 21.2724569,34.4273454 25.5707331,34.4273454 Z" id="Combined-Shape"></path>
        </g>
    </g>
</svg>

<?xml version="1.0" encoding="utf-8"?>
<!-- Generator: Adobe Illustrator 26.3.1, SVG Export Plug-In . SVG Version: 6.00 Build 0)  -->
<svg version="1.1" id="Layer_1" xmlns="http://www.w3.org/2000/svg" xmlns:xlink="http://www.w3.org/1999/xlink" x="0px" y="0px"
	 viewBox="0 0 51 44" style="enable-background:new 0 0 51 44;" xml:space="preserve">
<g id="RJ">
	<path fill="white" fill-rule="evenodd" clip-rule="evenodd" d="M44.9,11.2c3.7,2,6.3,6.7,6.1,12s-3,9.6-6.9,11.1c2.7-2.3,4.6-6.5,4.8-11.2
			C49.1,18.3,47.5,13.9,44.9,11.2z M2,22.8c0.1,4.9,1.9,9.1,4.6,11.5C2.8,32.7,0.1,28.2,0,22.9s2.5-9.8,6.3-11.7
			C3.7,13.8,2,18.1,2,22.8z M42.4,25.7c0-11.5-7.5-20.8-16.7-20.8S9,14.2,9,25.7c0,3,0.5,5.9,1.5,8.5c-1.7-3.2-2.6-7-2.6-11.1
			c0-12.1,7.9-22,17.7-22s17.7,9.8,17.7,22c0,4.1-0.9,7.9-2.4,11.1C41.9,31.6,42.4,28.8,42.4,25.7z M5.9,22
			c0,12.1,7.9,21.8,17.6,21.8c0.3,0,0.7,0,1,0c-0.8,0.1-1.6,0.2-2.4,0.2c-9.8,0-17.7-9.8-17.7-22S12.3,0,22.1,0
			c0.8,0,1.6,0.1,2.4,0.2c-0.3,0-0.7,0-1,0C13.8,0.2,5.9,9.9,5.9,22z M45.3,22c0-12.1-7.9-21.8-17.6-21.8c-0.3,0-0.7,0-1,0
			C27.5,0.1,28.3,0,29.1,0c9.8,0,17.7,9.8,17.7,22s-7.9,22-17.7,22c-0.8,0-1.6-0.1-2.4-0.2c0.3,0,0.7,0,1,0
			C37.4,43.8,45.3,34.1,45.3,22z M25.6,34.4c4.3,0,8-1.7,9.5-4.1c-1.1,2.9-4.9,5.1-9.5,5.1s-8.4-2.2-9.5-5.1
			C17.6,32.7,21.3,34.4,25.6,34.4z"/>
</g>
</svg>
